svg/motion_sensor_off.svg

<svg xmlns="http://www.w3.org/2000/svg" viewBox="0 0 24 24"><path d="M11.4 8.2H15V10h-1.8zM19.67 1h-1.34c0 2.58 2.09 4.67 4.67 4.67V4.33c-1.84 0-3.33-1.49-3.33-3.33M21 1a2 2 0 0 0 2 2V1zm-4 0h-1.33c0 4.05 3.28 7.33 7.33 7.33V7c-3.31 0-6-2.69-6-6m-7 2.8c1 0 1.8-.8 1.8-1.8S11 .2 10 .2 8.2 1 8.2 2 9 3.8 10 3.8M2.39 1.73 1.11 3l2.35 2.35L2 5.8V11h1.8V7.33l1.25-.39.63.63L2 22h1.8l2.87-8.11L9 17v5h1.8v-6.41l-2.49-4.54.19-.68 12.34 12.36 1.27-1.27zm6.99 3.14c-.3-.5-.84-.84-1.46-.84-.17 0-.34.03-.5.08l-.08.03 4.01 4.01z"/></svg>

<?xml version="1.0" encoding="UTF-8"?><!DOCTYPE svg PUBLIC "-//W3C//DTD SVG 1.1//EN" "http://www.w3.org/Graphics/SVG/1.1/DTD/svg11.dtd"><svg xmlns="http://www.w3.org/2000/svg" xmlns:xlink="http://www.w3.org/1999/xlink" version="1.1" id="mdi-motion-sensor-off" width="24" height="24" viewBox="0 0 24 24"><path d="M11.4 8.2H15V10H13.2L11.4 8.2M19.67 1H18.33C18.33 3.58 20.42 5.67 23 5.67V4.33C21.16 4.33 19.67 2.84 19.67 1M21 1C21 2.11 21.9 3 23 3V1H21M17 1H15.67C15.67 5.05 18.95 8.33 23 8.33V7C19.69 7 17 4.31 17 1M10 3.8C11 3.8 11.8 3 11.8 2S11 .2 10 .2 8.2 1 8.2 2 9 3.8 10 3.8M2.39 1.73L1.11 3L3.46 5.35L2 5.8V11H3.8V7.33L5.05 6.94L5.68 7.57L2 22H3.8L6.67 13.89L9 17V22H10.8V15.59L8.31 11.05L8.5 10.37L20.84 22.73L22.11 21.46L2.39 1.73M9.38 4.87C9.08 4.37 8.54 4.03 7.92 4.03C7.75 4.03 7.58 4.06 7.42 4.11L7.34 4.14L11.35 8.15L9.38 4.87Z" /></svg>
